packages/icons/src/ear-slash.svg

<svg width="24" height="24" viewBox="0 0 24 24" fill="none" xmlns="http://www.w3.org/2000/svg">
<path d="M15.8151 12.5685L16.295 11.5674C16.7526 10.7888 16.9959 9.90304 17.0001 9C17.0001 8.28827 16.8481 7.58475 16.5544 6.93648C16.2606 6.2882 15.8318 5.7101 15.2967 5.24084C14.7616 4.77157 14.1325 4.42195 13.4514 4.21535C12.7703 4.00874 12.053 3.94992 11.3474 4.04281C10.6417 4.1357 9.96405 4.37815 9.35964 4.75398C9.08378 4.92551 8.82608 5.12301 8.58983 5.34332L7.17528 3.92876C7.68588 3.44297 8.26844 3.03561 8.90426 2.72204C9.86719 2.24714 10.9265 2.00009 12.0001 2C13.2289 2.00008 14.4359 2.32356 15.5 2.93795C16.5641 3.55234 17.4478 4.43598 18.0622 5.50008C18.6766 6.56418 19 7.77125 19.0001 8.99998C19.0002 10.2287 18.6769 11.4358 18.0626 12.5L17.312 14.0655L15.8151 12.5685Z" fill="black"/>
<path d="M5.92949 5.51512L5.93085 5.51276L7.41752 6.99943L7.41639 7.00202L14.8972 14.4829L14.8985 14.4804L16.3954 15.9774L16.3942 15.9799L20.6068 20.1924L19.1925 21.6066L15.4776 17.8917L14.4991 19.9326C14.2438 20.3954 13.8993 20.803 13.4855 21.1318C13.0717 21.4606 12.5968 21.7041 12.0883 21.8483C11.5798 21.9924 11.0478 22.0343 10.523 21.9716C9.99821 21.9088 9.49106 21.7427 9.03088 21.4827C8.5707 21.2227 8.16662 20.8741 7.84201 20.457C7.5174 20.0399 7.2787 19.5625 7.13972 19.0526C7.00073 18.5427 6.96421 18.0102 7.03227 17.4861C7.10034 16.962 7.27163 16.4565 7.53625 15.999C7.66913 15.7693 7.88782 15.6017 8.14422 15.5332C8.40062 15.4647 8.67373 15.5009 8.90346 15.6338C9.1332 15.7667 9.30074 15.9854 9.36923 16.2418C9.43772 16.4982 9.40155 16.7713 9.26867 17.001C9.09275 17.3045 9.00011 17.6492 9.00012 18C9.00711 18.5283 9.22007 19.0329 9.59364 19.4065C9.96721 19.7801 10.4719 19.993 11.0001 20C11.351 19.9994 11.6956 19.9068 11.9994 19.7313C12.3033 19.5558 12.5557 19.3036 12.7316 19L13.9806 16.3947L7.01849 9.43255C7.04368 9.72278 7.09425 10.0111 7.17004 10.294C7.23751 10.5498 7.20087 10.8218 7.06817 11.0507C6.93546 11.2795 6.71749 11.4464 6.46198 11.5148C6.20648 11.5833 5.93426 11.5477 5.70493 11.4159C5.4756 11.2841 5.30785 11.0668 5.2384 10.8115C4.96066 9.77439 4.9252 8.68728 5.13475 7.63426C5.13947 7.61058 5.1443 7.58693 5.14925 7.56332L1.39355 3.80762L2.80777 2.3934L5.92949 5.51512Z" fill="black"/>
<path d="M10.007 6.76051L11.4272 8.18071C11.4461 8.16748 11.4655 8.15488 11.4854 8.14294C11.6409 8.04954 11.8188 8.00013 12.0001 8C12.2653 8.00018 12.5195 8.10559 12.707 8.29309C12.8945 8.48059 12.9999 8.73484 13.0001 9C13.0001 9.26522 13.1055 9.51957 13.293 9.70711C13.4806 9.89464 13.7349 10 14.0001 10C14.2653 10 14.5197 9.89464 14.7072 9.70711C14.8948 9.51957 15.0001 9.26522 15.0001 9C14.9999 8.50078 14.875 8.00953 14.6368 7.57077C14.3987 7.13201 14.0548 6.75963 13.6364 6.48739C13.2179 6.21514 12.7381 6.05165 12.2405 6.01172C11.7429 5.97179 11.2432 6.0567 10.7867 6.25874C10.5013 6.38504 10.2385 6.5546 10.007 6.76051Z" fill="black"/>
</svg>

<svg xmlns="http://www.w3.org/2000/svg" width="24" height="24" fill="none" viewBox="0 0 24 24">
  <path fill="#000" d="m15.815 12.569.48-1.002c.458-.778.7-1.664.705-2.567a5 5 0 0 0-8.41-3.657L7.175 3.93a7 7 0 0 1 10.888 8.57l-.751 1.566-1.497-1.498ZM5.93 5.515v-.002l1.488 1.486-.002.003 7.481 7.48.002-.002 1.496 1.497v.003l4.212 4.212-1.415 1.415-3.714-3.715-.979 2.04A3.998 3.998 0 1 1 7.536 16a1 1 0 0 1 1.733 1.002A1.992 1.992 0 0 0 9 18a2.027 2.027 0 0 0 2 2 2.005 2.005 0 0 0 1.732-1l1.249-2.605-6.963-6.962a5 5 0 0 0 .152.861 1 1 0 0 1-1.932.518 7 7 0 0 1-.089-3.249L1.394 3.808l1.414-1.415 3.121 3.122Z"/>
  <path fill="#000" d="m10.007 6.76 1.42 1.42A.987.987 0 0 1 12 8a1 1 0 0 1 1 1 1 1 0 0 0 2 0 2.998 2.998 0 0 0-4.993-2.24Z"/>
</svg>
